X: 1052
T: Miss Admiral Gordon's Strathspey
C: by Mr Marshall
%R: strathspey
N: This is version 1, for ABC software that doesn't understand voice overlays.
N: Some chords' low notes should be extended as drone below several more notes.
B: Niel Gow & Sons "Complete Repository" v.1 p.5 #2
Z: 2021 John Chambers <jc:trillian.mit.edu>
N: Missing 8th note in bass bar 15; fixed to match bar 7.
M: C
L: 1/8
Q: "SLOW"
K: A
% - - - - - - - - - -
% Voice 1 formatted for proofreading.
V: 1 staves=2
E |\
A/A/A (.A>.A) TA>E A>f | e<cTB>A {A}F2-TF>B | A/A/A (.A>.A) A>E A>f | ef/g/ a>c {c}e2-ef || e>fac ecTB>A |
(B/d/)(c/e/) (d/c/).B/.A/ {A}F2TF>B | !f!A/A/A [AC]>[AC] [AC]>E A<f | ecTB>c [A2E2C2][AEC] |[| !p!E |\
TC>E [AC]>TE [FA,4]>E AE | Tc>e (d/c/)B/A/ {G}TF2F{G}A | C>E [AA,4]>E TF>EAE |
Tc>d (e/f/)(g/a/) {f}e2ef/g/ || !p!Ta>gf>e Tf>ed>c | ("_CRES"B/d/c/e/ d/c/B/A/) {A}F2TF>B |\
!f!A/A/A [AC-]>[AC] [AC]>E A>f | ecTB>c [A2E2C2][AEC] |]
% - - - - - - - - - -
% Voice 2 preserves the book's staff layout.
V: 2 clef=bass middle=d
z | A2a2 A2a2 | A2Bc d2D2| A2a2 A2a2 | A2a2 c3d || c2A2 a2A2 |
GA Bc d2D2 | !f![a2A2][f2F2] [c3C3]d | e2E2 A2A |[| z | A2c2 d2c2 | a2bc' d'2dz | A2c2 d2c2 |
A2a2 Aa Az || !p!f'e'd'c' d'c'ba | ga bc' d'2d2 | !f![a2A2][f2F2] [c3C3]d | e2E2 A2A |]
